X: 10504
M: 6/8
L: 1/16
K: Bb
e3fe2 (ed)(cB)(cd) | (B6 A4) F2 |\
(FA)(ce)(cA) F4F2 | (FB)(df)(dB) F4F2 |
(ed)(ed)(cf) (dc)(dc)(Be) | (Hd6 Hc4) (de) |\
f3ed2 f3ed2 | e3fg2 c4 (Bc) |\
(dc)(ed)(cB) Ac3(cd) | B6 z4f2 |\
d3ef2 f3df2 | c3de2 eHc3(Bc) |\
(dc)(ed)(cB) AHf3(cd) | B6 z4 |]


